X:761
T:Reel 761
M:4/4
K:Emin
L:1/8
BA|G>E (3EDE B>E (3EDE |F>E (3EEE B>E (3EEE |F>D (3DDD A>D (3FED |A>D (3DDD c>E (3AGF |E>e (3EEE B>E (3EDE |F>E (3DEF GABe|c>A (3AGF dAGF| (3EFE DF E2|A2|F>A (3ADA d>E (3EDE |F>D (3DED FAdA|F>A (3ADA F>E (3DED |FDAd cA (3AGA |A>d (3ddd e>d (3ddd |c>d (3ddd cABA|c>A (3AAG e>G (3FED |EDED E2|
